icons/clock-outline.svg

<svg xmlns="http://www.w3.org/2000/svg" width="24" height="24" viewBox="0 0 24 24">
    <path fill="#3A3A47" fill-rule="evenodd" d="M12 2c5.514 0 10 4.486 10 10s-4.486 10-10 10S2 17.514 2 12 6.486 2 12 2zm0 2c-4.411 0-8 3.589-8 8s3.589 8 8 8 8-3.589 8-8-3.589-8-8-8zm0 2.5c.667 0 1 .333 1 1v4.155l2.01 1.996c.435.426.429.872-.02 1.336-.447.465-.922.471-1.426.02l-1.962-1.919c-.246-.26-.407-.48-.483-.663-.077-.182-.117-.437-.119-.767V7.5c0-.667.333-1 1-1z"/>
</svg>

<svg width="24" height="24" viewBox="0 0 24 24" fill="none" xmlns="http://www.w3.org/2000/svg">
<path d="M12 2C17.514 2 22 6.486 22 12C22 17.514 17.514 22 12 22C6.486 22 2 17.514 2 12C2 6.486 6.486 2 12 2ZM12 20C16.411 20 20 16.411 20 12C20 7.589 16.411 4 12 4C7.589 4 4 7.589 4 12C4 16.411 7.589 20 12 20ZM11 7.5C11 6.833 11.333 6.5 12 6.5C12.667 6.5 13 6.833 13 7.5V11.655L15.01 13.651C15.445 14.077 15.439 14.523 14.99 14.987C14.543 15.452 14.068 15.458 13.564 15.007L11.602 13.088C11.356 12.828 11.195 12.608 11.119 12.425C11.042 12.243 11.002 11.988 11 11.658V7.5Z" fill="#3A3A47"/>
</svg>
